; generated by Slic3r 1.2.9 on 2016-06-02 at 19:00:56

; ATENÇÂO: Se imprimir sem FAN no Extruder, entope o bico :(
; Baixei a velocidade de impressão para nao entupir o bico
; 
; Esta configuração é  com 4mm de  paredes
; Intruções:
; 1. Filament Settings > Extrution Multiplaier para: 0.9
; 2. Printer Settings > Z offset: +0.2
; 3. Compensation XY: -0.1
; 
; OK Para
; 
; Cubo Oco 20x20x20
; Parafusos e porcas 

; external perimeters extrusion width = 0.20mm
; perimeters extrusion width = 0.40mm
; infill extrusion width = 0.80mm
; solid infill extrusion width = 0.80mm
; top infill extrusion width = 0.80mm

; ---------------------------------------------------
; 0225 - Graber ABS Pecas P Acaba Medio 050% Infill 
; Filamento 1,75 ABS ExM 1
; Prusa Graber Z Offset 0.4
; --------------------------------------------------

M107
M190 S110 ; set bed temperature
M104 S250 ; set temperature
G28 ; home all axes
G29; Auto Bed Leveling
G1 Z5 F5000 ; lift nozzle

M109 S250 ; wait for temperature to be reached
G21 ; set units to millimeters
G90 ; use absolute coordinates
M82 ; use absolute distances for extrusion
G92 E0
G1 Z0.800 F7800.000
G1 E-2.00000 F2400.00000
G92 E0
G1 X43.552 Y27.038 F7800.000
G1 E2.00000 F2400.00000
G1 X45.238 Y25.535 E2.25931 F1800.000
G1 X47.341 Y24.709 E2.51862
G1 X48.604 Y24.584 E2.66434
G1 X141.399 Y24.584 E13.31679
G1 X143.623 Y24.981 E13.57611
G1 X145.572 Y26.122 E13.83542 F1800.000
G1 X147.006 Y27.868 E14.09473
G1 X147.827 Y31.073 E14.47450
G1 X146.829 Y136.027 E26.52340
G1 X146.411 Y138.247 E26.78271
G1 X145.251 Y140.185 E27.04202
G1 X143.492 Y141.603 E27.30133
G1 X140.401 Y142.394 E27.66759
G1 X68.600 Y142.394 E35.91002
G1 X66.376 Y141.997 E36.16933
G1 X64.427 Y140.856 E36.42865
G1 X63.006 Y139.133 E36.68506
G1 X46.002 Y109.094 E40.64748
G1 X45.173 Y106.184 E40.99483
G1 X42.181 Y31.269 E49.60165
G1 X42.489 Y29.031 E49.86096
G1 X43.523 Y27.091 E50.11339
G1 X44.169 Y27.462 F7800.000
G1 X44.269 Y27.290 E50.13627 F1800.000
G1 X45.932 Y25.961 E50.38064
G1 X48.604 Y25.298 E50.69667
G1 X141.399 Y25.298 E61.34912
G1 X143.490 Y25.695 E61.59348
G1 X145.292 Y26.829 E61.83785 F1800.000
G1 X146.553 Y28.544 E62.08221
G1 X147.113 Y31.066 E62.37877
G1 X146.115 Y136.021 E74.42765
G1 X145.698 Y138.108 E74.67202
G1 X144.547 Y139.898 E74.91638
G1 X142.820 Y141.143 E75.16074
G1 X140.401 Y141.680 E75.44519
G1 X68.600 Y141.680 E83.68762
G1 X66.509 Y141.284 E83.93199
G1 X64.707 Y140.149 E84.17635
G1 X63.627 Y138.781 E84.37647
G1 X46.624 Y108.742 E88.33889
G1 X45.887 Y106.156 E88.64765
G1 X42.894 Y31.240 E97.25447
G1 X43.207 Y29.135 E97.49884
G1 X44.140 Y27.514 E97.71343
G1 E95.71343 F2400.00000
G92 E0
G1 X107.632 Y117.859 F7800.000
G1 E2.00000 F2400.00000
G1 X121.488 Y117.859 E3.59068 F1800.000
G1 X121.488 Y131.716 E5.18136
G1 X107.632 Y131.716 E6.77204
G1 X107.632 Y117.919 E8.35584
G1 X108.346 Y118.573 F7800.000
G1 X120.774 Y118.573 E9.78255 F1800.000
G1 X120.774 Y131.001 E11.20927
G1 X108.346 Y131.001 E12.63599
G1 X108.346 Y118.633 E14.05582
G1 X109.060 Y119.287 F7800.000
G1 X120.060 Y119.287 E15.31857 F1800.000
G1 X120.060 Y130.287 E16.58132
G1 X109.060 Y130.287 E17.84407
G1 X109.060 Y119.347 E19.09993
G1 X109.060 Y118.887 F7800.000
G1 X106.532 Y119.347 F7800.000
G1 X106.532 Y131.552 E20.50098 F1800.000
G1 X92.675 Y131.552 E22.09166
G1 X92.675 Y117.695 E23.68234
G1 X106.532 Y117.695 E25.27302 F1800.000
G1 X106.532 Y119.287 E25.45577
G1 X105.818 Y119.287 F7800.000
G1 X105.818 Y130.838 E26.78172 F1800.000
G1 X93.390 Y130.838 E28.20843
G1 X93.390 Y118.410 E29.63515
G1 X105.818 Y118.410 E31.06187 F1800.000
G1 X105.818 Y119.227 E31.15575
G1 X105.104 Y119.227 F7800.000
G1 X105.104 Y130.124 E32.40660 F1800.000
G1 X94.104 Y130.124 E33.66935
G1 X94.104 Y119.124 E34.93210
G1 X105.104 Y119.124 E36.19485 F1800.000
G1 X105.104 Y119.167 E36.19986
G1 X105.450 Y119.427 F7800.000
G1 X91.423 Y119.167 F7800.000
G1 X91.423 Y131.423 E37.60675 F1800.000
G1 X77.567 Y131.423 E39.19743
G1 X77.567 Y117.566 E40.78811
G1 X91.423 Y117.566 E42.37879 F1800.000
G1 X91.423 Y119.107 E42.55570
G1 X90.709 Y119.107 F7800.000
G1 X90.709 Y130.709 E43.88749 F1800.000
G1 X78.281 Y130.709 E45.31420
G1 X78.281 Y118.280 E46.74092
G1 X90.709 Y118.280 E48.16764 F1800.000
G1 X90.709 Y119.047 E48.25568
G1 X89.995 Y119.047 F7800.000
G1 X89.995 Y129.995 E49.51237 F1800.000
G1 X78.995 Y129.995 E50.77512
G1 X78.995 Y118.995 E52.03787
G1 X89.988 Y118.995 E53.29979 F1800.000
G1 X90.395 Y119.048 F7800.000
G1 X89.988 Y115.890 F7800.000
G1 X77.567 Y115.890 E54.72568 F1800.000
G1 X77.567 Y102.033 E56.31636
G1 X91.423 Y102.033 E57.90704 F1800.000
G1 X91.423 Y115.890 E59.49772
G1 X90.048 Y115.890 E59.65563
G1 X90.048 Y115.175 F7800.000
G1 X78.281 Y115.175 E61.00642 F1800.000
G1 X78.281 Y102.747 E62.43314
G1 X90.709 Y102.747 E63.85985 F1800.000
G1 X90.709 Y115.175 E65.28657
G1 X90.108 Y115.175 E65.35561
G1 X89.995 Y114.461 F7800.000
G1 X78.995 Y114.461 E66.61836 F1800.000
G1 X78.995 Y103.461 E67.88111
G1 X89.995 Y103.461 E69.14386 F1800.000
G1 X89.995 Y114.401 E70.39973
G1 X89.995 Y114.861 F7800.000
G1 X92.675 Y114.401 F7800.000
G1 X92.675 Y102.162 E71.80473 F1800.000
G1 X106.532 Y102.162 E73.39541 F1800.000
G1 X106.532 Y116.019 E74.98609
G1 X92.675 Y116.019 E76.57677
G1 X92.675 Y114.461 E76.75556
G1 X93.390 Y114.461 F7800.000
G1 X93.390 Y102.876 E78.08547 F1800.000
G1 X105.818 Y102.876 E79.51219 F1800.000
G1 X105.818 Y115.305 E80.93890
G1 X93.390 Y115.305 E82.36562
G1 X93.390 Y114.521 E82.45554
G1 X94.104 Y114.521 F7800.000
G1 X94.104 Y103.590 E83.71035 F1800.000
G1 X105.104 Y103.590 E84.97310 F1800.000
G1 X105.104 Y114.590 E86.23585
G1 X94.104 Y114.581 E87.49861
G1 X93.704 Y114.520 F7800.000
G1 X107.632 Y114.581 F7800.000
G1 X107.632 Y102.326 E88.90549 F1800.000
G1 X121.488 Y102.326 E90.49617 F1800.000
G1 X121.488 Y116.182 E92.08685
G1 X107.632 Y116.182 E93.67753
G1 X107.632 Y114.641 E93.85444
G1 X108.346 Y114.641 F7800.000
G1 X108.346 Y103.040 E95.18623 F1800.000
G1 X120.774 Y103.040 E96.61294 F1800.000
G1 X120.774 Y115.468 E98.03966
G1 X108.346 Y115.468 E99.46638
G1 X108.346 Y114.701 E99.55442
G1 X109.060 Y114.701 F7800.000
G1 X109.060 Y103.754 E100.81111 F1800.000
G1 X120.060 Y103.754 E102.07386 F1800.000
G1 X120.060 Y114.754 E103.33661
G1 X109.067 Y114.754 E104.59854
G1 X108.660 Y114.701 F7800.000
G1 X122.618 Y114.754 F7800.000
G1 X122.618 Y102.261 E106.03268 F1800.000
G1 X136.475 Y102.261 E107.62336 F1800.000
G1 X136.475 Y116.118 E109.21404
G1 X122.618 Y116.118 E110.80472
G1 X122.618 Y114.814 E110.95437
G1 X123.333 Y114.814 F7800.000
G1 X123.333 Y102.975 E112.31342 F1800.000
G1 X135.761 Y102.975 E113.74014 F1800.000
G1 X135.761 Y115.403 E115.16685
G1 X123.333 Y115.403 E116.59357
G1 X123.333 Y114.874 E116.65435
G1 X124.047 Y114.689 F7800.000
G1 X124.047 Y103.689 E117.91710 F1800.000
G1 X135.047 Y103.689 E119.17985 F1800.000
G1 X135.047 Y114.689 E120.44260
G1 X124.107 Y114.689 E121.69847
G1 X123.647 Y114.689 F7800.000
G1 X124.107 Y117.794 F7800.000
G1 X136.475 Y117.794 E123.11829 F1800.000
G1 X136.475 Y131.651 E124.70897
G1 X122.618 Y131.651 E126.29965
G1 X122.618 Y117.794 E127.89034
G1 X124.047 Y117.794 E128.05430 F1800.000
G1 X124.047 Y118.508 F7800.000
G1 X135.761 Y118.508 E129.39903 F1800.000
G1 X135.761 Y130.937 E130.82575
G1 X123.333 Y130.937 E132.25247
G1 X123.333 Y118.508 E133.67918
G1 X123.987 Y118.508 E133.75428 F1800.000
G1 X124.047 Y119.223 F7800.000
G1 X135.047 Y119.223 E135.01703 F1800.000
G1 X135.047 Y130.223 E136.27978
G1 X124.047 Y130.223 E137.54253
G1 X124.047 Y119.283 E138.79839
G1 X124.047 Y118.823 F7800.000
G1 X124.047 Y100.118 F7800.000
G1 X122.618 Y100.118 E138.96236 F1800.000
G1 X122.618 Y86.261 E140.55304
G1 X136.475 Y86.261 E142.14372 F1800.000
G1 X136.475 Y100.118 E143.73440
G1 X124.107 Y100.118 E145.15423
G1 X124.107 Y99.403 F7800.000
G1 X123.333 Y99.403 E145.24310 F1800.000
G1 X123.333 Y86.975 E146.66982
G1 X135.761 Y86.975 E148.09653 F1800.000
G1 X135.761 Y99.403 E149.52325
G1 X124.167 Y99.403 E150.85421
G1 X124.167 Y98.689 F7800.000
G1 X124.047 Y98.689 E150.86798 F1800.000
G1 X124.047 Y87.689 E152.13073
G1 X135.047 Y87.689 E153.39348 F1800.000
G1 X135.047 Y98.689 E154.65624
G1 X124.227 Y98.689 E155.89832
G1 X124.107 Y98.793 F7800.000
G1 X121.488 Y98.689 F7800.000
G1 X121.488 Y100.182 E156.06972 F1800.000
G1 X107.632 Y100.182 E157.66040
G1 X107.632 Y86.326 E159.25108
G1 X121.488 Y86.326 E160.84176 F1800.000
G1 X121.488 Y98.629 E162.25416
G1 X120.774 Y98.629 F7800.000
G1 X120.774 Y99.468 E162.35046 F1800.000
G1 X108.346 Y99.468 E163.77717
G1 X108.346 Y87.040 E165.20389
G1 X120.774 Y87.040 E166.63060 F1800.000
G1 X120.774 Y98.569 E167.95414
G1 X120.060 Y98.569 F7800.000
G1 X120.060 Y98.754 E167.97534 F1800.000
G1 X109.060 Y98.754 E169.23809
G1 X109.060 Y87.754 E170.50084
G1 X120.060 Y87.754 E171.76359 F1800.000
G1 X120.060 Y98.509 E172.99825
G1 X120.220 Y98.662 F7800.000
G1 X106.532 Y98.509 F7800.000
G1 X106.532 Y100.019 E173.17152 F1800.000
G1 X92.675 Y100.019 E174.76220
G1 X92.675 Y86.162 E176.35288
G1 X106.532 Y86.162 E177.94357 F1800.000
G1 X106.532 Y98.449 E179.35409
G1 X105.818 Y98.449 F7800.000
G1 X105.818 Y99.305 E179.45226 F1800.000
G1 X93.390 Y99.305 E180.87898
G1 X93.390 Y86.876 E182.30570
G1 X105.818 Y86.876 E183.73241 F1800.000
G1 X105.818 Y98.389 E185.05406
G1 X105.104 Y98.389 F7800.000
G1 X105.104 Y98.590 E185.07715 F1800.000
G1 X94.104 Y98.590 E186.33990
G1 X94.104 Y87.590 E187.60265
G1 X105.104 Y87.590 E188.86540 F1800.000
G1 X105.104 Y98.329 E190.09818
G1 X105.278 Y98.490 F7800.000
G1 X91.423 Y98.329 F7800.000
G1 X91.423 Y99.890 E190.27729 F1800.000
G1 X77.567 Y99.890 E191.86797
G1 X77.567 Y86.033 E193.45865
G1 X91.423 Y86.033 E195.04933 F1800.000
G1 X91.423 Y98.269 E196.45402
G1 X90.709 Y98.269 F7800.000
G1 X90.709 Y99.175 E196.55803 F1800.000
G1 X78.281 Y99.175 E197.98475
G1 X78.281 Y86.747 E199.41146
G1 X90.709 Y86.747 E200.83818 F1800.000
G1 X90.709 Y98.209 E202.15399
G1 X89.995 Y98.209 F7800.000
G1 X89.995 Y98.461 E202.18291 F1800.000
G1 X78.995 Y98.461 E203.44567
G1 X78.995 Y87.461 E204.70842
G1 X89.995 Y87.461 E205.97117 F1800.000
G1 X89.995 Y98.149 E207.19811
G1 X90.213 Y98.335 F7800.000
G1 X76.411 Y98.149 F7800.000
G1 X76.411 Y100.012 E207.41197 F1800.000
G1 X62.554 Y100.012 E209.00265
G1 X62.554 Y86.156 E210.59333
G1 X76.411 Y86.156 E212.18401 F1800.000
G1 X76.411 Y98.089 E213.55395
G1 X75.696 Y98.089 F7800.000
G1 X75.696 Y99.298 E213.69271 F1800.000
G1 X63.268 Y99.298 E215.11943
G1 X63.268 Y86.870 E216.54614
G1 X75.696 Y86.870 E217.97286 F1800.000
G1 X75.696 Y98.029 E219.25392
G1 X74.982 Y98.029 F7800.000
G1 X74.982 Y98.584 E219.31759 F1800.000
G1 X63.982 Y98.584 E220.58035
G1 X63.982 Y87.584 E221.84310
G1 X74.982 Y87.584 E223.10585 F1800.000
G1 X74.982 Y97.969 E224.29804
G1 X75.329 Y98.229 F7800.000
G1 X74.982 Y84.012 F7800.000
G1 X62.554 Y84.012 E225.72476 F1800.000
G1 X62.554 Y70.156 E227.31544
G1 X76.411 Y70.156 E228.90612 F1800.000
G1 X76.411 Y84.012 E230.49680
G1 X75.042 Y84.012 E230.65388
G1 X75.042 Y83.298 F7800.000
G1 X63.268 Y83.298 E232.00550 F1800.000
G1 X63.268 Y70.870 E233.43221
G1 X75.696 Y70.870 E234.85893 F1800.000
G1 X75.696 Y83.298 E236.28565
G1 X75.102 Y83.298 E236.35385
G1 X74.982 Y82.584 F7800.000
G1 X63.982 Y82.584 E237.61661 F1800.000
G1 X63.982 Y71.584 E238.87936
G1 X74.982 Y71.584 E240.14211 F1800.000
G1 X74.982 Y82.524 E241.39797
G1 X74.982 Y82.984 F7800.000
G1 X77.567 Y82.524 F7800.000
G1 X77.567 Y70.033 E242.83189 F1800.000
G1 X91.423 Y70.033 E244.42257 F1800.000
G1 X91.423 Y83.890 E246.01325
G1 X77.567 Y83.890 E247.60393
G1 X77.567 Y82.584 E247.75381
G1 X78.281 Y82.584 F7800.000
G1 X78.281 Y70.747 E249.11263 F1800.000
G1 X90.709 Y70.747 E250.53934 F1800.000
G1 X90.709 Y83.175 E251.96606
G1 X78.281 Y83.175 E253.39278
G1 X78.281 Y82.644 E253.45378
G1 X78.995 Y82.461 F7800.000
G1 X78.995 Y71.461 E254.71654 F1800.000
G1 X89.995 Y71.461 E255.97929 F1800.000
G1 X89.995 Y82.461 E257.24204
G1 X79.055 Y82.461 E258.49790
G1 X78.595 Y82.461 F7800.000
G1 X92.675 Y82.461 F7800.000
G1 X92.675 Y70.162 E259.90979 F1800.000
G1 X106.532 Y70.162 E261.50047 F1800.000
G1 X106.532 Y84.019 E263.09116
G1 X92.675 Y84.019 E264.68184
G1 X92.675 Y82.521 E264.85374
G1 X93.390 Y82.521 F7800.000
G1 X93.390 Y70.876 E266.19053 F1800.000
G1 X105.818 Y70.876 E267.61725 F1800.000
G1 X105.818 Y83.305 E269.04397
G1 X93.390 Y83.305 E270.47068
G1 X93.390 Y82.581 E270.55371
G1 X94.104 Y82.581 F7800.000
G1 X94.104 Y71.590 E271.81542 F1800.000
G1 X105.104 Y71.590 E273.07817 F1800.000
G1 X105.104 Y82.590 E274.34092
G1 X94.155 Y82.590 E275.59783
G1 X93.704 Y82.581 F7800.000
G1 X107.632 Y82.590 F7800.000
G1 X107.632 Y70.326 E277.00576 F1800.000
G1 X121.488 Y70.326 E278.59644 F1800.000
G1 X121.488 Y84.182 E280.18712
G1 X107.632 Y84.182 E281.77780
G1 X107.632 Y82.650 E281.95367
G1 X108.346 Y82.650 F7800.000
G1 X108.346 Y71.040 E283.28650 F1800.000
G1 X120.774 Y71.040 E284.71322 F1800.000
G1 X120.774 Y83.468 E286.13993
G1 X108.346 Y83.468 E287.56665
G1 X108.346 Y82.710 E287.65364
G1 X109.060 Y82.710 F7800.000
G1 X109.060 Y71.754 E288.91138 F1800.000
G1 X120.060 Y71.754 E290.17414 F1800.000
G1 X120.060 Y82.754 E291.43689
G1 X109.077 Y82.754 E292.69776
G1 X108.660 Y82.710 F7800.000
G1 X122.618 Y82.754 F7800.000
G1 X122.618 Y70.261 E294.13190 F1800.000
G1 X136.475 Y70.261 E295.72259 F1800.000
G1 X136.475 Y84.118 E297.31327
G1 X122.618 Y84.118 E298.90395
G1 X122.618 Y82.814 E299.05360
G1 X123.333 Y82.814 F7800.000
G1 X123.333 Y70.975 E300.41264 F1800.000
G1 X135.761 Y70.975 E301.83936 F1800.000
G1 X135.761 Y83.403 E303.26608
G1 X123.333 Y83.403 E304.69279
G1 X123.333 Y82.874 E304.75357
G1 X124.047 Y82.689 F7800.000
G1 X124.047 Y71.689 E306.01632 F1800.000
G1 X135.047 Y71.689 E307.27908 F1800.000
G1 X135.047 Y82.689 E308.54183
G1 X124.107 Y82.689 E309.79769
G1 X123.647 Y82.689 F7800.000
G1 X124.107 Y67.118 F7800.000
G1 X122.618 Y67.118 E309.96854 F1800.000
G1 X122.618 Y53.261 E311.55922
G1 X136.475 Y53.261 E313.14990 F1800.000
G1 X136.475 Y67.118 E314.74058
G1 X124.167 Y67.118 E316.15352
G1 X124.167 Y66.403 F7800.000
G1 X123.333 Y66.403 E316.24928 F1800.000
G1 X123.333 Y53.975 E317.67600
G1 X135.761 Y53.975 E319.10271 F1800.000
G1 X135.761 Y66.403 E320.52943
G1 X124.227 Y66.403 E321.85350
G1 X124.227 Y65.689 F7800.000
G1 X124.047 Y65.689 E321.87416 F1800.000
G1 X124.047 Y54.689 E323.13691
G1 X135.047 Y54.689 E324.39966 F1800.000
G1 X135.047 Y65.689 E325.66241
G1 X124.287 Y65.689 E326.89762
G1 X124.137 Y65.845 F7800.000
G1 X121.488 Y65.689 F7800.000
G1 X121.488 Y67.182 E327.06901 F1800.000
G1 X107.632 Y67.182 E328.65969
G1 X107.632 Y53.326 E330.25037
G1 X121.488 Y53.326 E331.84105 F1800.000
G1 X121.488 Y65.629 E333.25345
G1 X120.774 Y65.629 F7800.000
G1 X120.774 Y66.468 E333.34975 F1800.000
G1 X108.346 Y66.468 E334.77646
G1 X108.346 Y54.040 E336.20318
G1 X120.774 Y54.040 E337.62989 F1800.000
G1 X120.774 Y65.569 E338.95342
G1 X120.060 Y65.569 F7800.000
G1 X120.060 Y65.754 E338.97463 F1800.000
G1 X109.060 Y65.754 E340.23738
G1 X109.060 Y54.754 E341.50013
G1 X120.060 Y54.754 E342.76288 F1800.000
G1 X120.060 Y65.509 E343.99754
G1 X120.220 Y65.662 F7800.000
G1 X106.532 Y65.509 F7800.000
G1 X106.532 Y67.019 E344.17081 F1800.000
G1 X92.675 Y67.019 E345.76149
G1 X92.675 Y53.162 E347.35217
G1 X106.532 Y53.162 E348.94285 F1800.000
G1 X106.532 Y65.449 E350.35338
G1 X105.818 Y65.449 F7800.000
G1 X105.818 Y66.305 E350.45155 F1800.000
G1 X93.390 Y66.305 E351.87827
G1 X93.390 Y53.876 E353.30498
G1 X105.818 Y53.876 E354.73170 F1800.000
G1 X105.818 Y65.389 E356.05335
G1 X105.104 Y65.389 F7800.000
G1 X105.104 Y65.590 E356.07643 F1800.000
G1 X94.104 Y65.590 E357.33918
G1 X94.104 Y54.590 E358.60194
G1 X105.104 Y54.590 E359.86469 F1800.000
G1 X105.104 Y65.329 E361.09747
G1 X105.278 Y65.490 F7800.000
G1 X91.423 Y65.329 F7800.000
G1 X91.423 Y66.890 E361.27658 F1800.000
G1 X77.567 Y66.890 E362.86726
G1 X77.567 Y53.033 E364.45794
G1 X91.423 Y53.033 E366.04862 F1800.000
G1 X91.423 Y65.269 E367.45330
G1 X90.709 Y65.269 F7800.000
G1 X90.709 Y66.175 E367.55732 F1800.000
G1 X78.281 Y66.175 E368.98404
G1 X78.281 Y53.747 E370.41075
