; generated by Slic3r 1.2.9 on 2016-06-04 at 11:15:57

; Usei a configuração do link:
; http://manuais3dm.blogspot.com.br/2013/03/primeira-impressao-3d-repetier-host-e.html
; 
; Atenção: Na opção infill, Solid Infill Threshold area, força como maciço as peças pequenas, o que da muito problema. A peça fica retorcida.
; 
; -------------------------------------
; ABS 
; First: 250 / 230
; Instruções:
; Filament Settings -> Extrusion Multiplier: 1
; Printer Settings -> Z Offset: +0.2
; 
; 
; --------------------------------------
; Engrenagens Pequenas com muito detalhes e com buraco no meio

; external perimeters extrusion width = 0.20mm
; perimeters extrusion width = 0.20mm
; infill extrusion width = 0.20mm
; solid infill extrusion width = 0.80mm
; top infill extrusion width = 0.80mm

M107
M190 S110 ; set bed temperature
M104 S250 ; set temperature
G28 ; home all axes
G29; Auto Bed Leveling
G1 Z5 F5000 ; lift nozzle

M109 S250 ; wait for temperature to be reached
G21 ; set units to millimeters
G90 ; use absolute coordinates
M82 ; use absolute distances for extrusion
G92 E0
G1 Z0.800 F3600.000
G1 E-2.00000 F2400.00000
G92 E0
G1 X11.402 Y11.093 F3600.000
G1 E2.00000 F2400.00000
G1 X12.146 Y10.367 E2.08585 F600.000
G1 X12.507 Y10.050 E2.12556
G1 X13.121 Y9.626 E2.18726
G1 X17.140 Y7.435 E2.56554
G1 X17.840 Y7.146 E2.62817
G1 X18.927 Y6.866 E2.72092
G1 X19.398 Y6.772 E2.76063
G1 X20.142 Y6.711 E2.82233
G1 X24.718 Y6.823 E3.20061
G1 X25.502 Y6.931 E3.26604 F600.000
G1 X26.550 Y7.224 E3.35597
G1 X27.005 Y7.378 E3.39568
G1 X27.680 Y7.698 E3.45738
G1 X31.586 Y10.083 E3.83566
G1 X32.212 Y10.568 E3.90109
G1 X32.973 Y11.346 E3.99103
G1 X33.290 Y11.707 E4.03074
G1 X33.714 Y12.321 E4.09243
G1 X35.905 Y16.340 E4.47071
G1 X36.194 Y17.040 E4.53335
G1 X36.474 Y18.127 E4.62609
G1 X36.568 Y18.598 E4.66580
G1 X36.629 Y19.342 E4.72750
G1 X36.517 Y23.918 E5.10578
G1 X36.409 Y24.702 E5.17121
G1 X36.116 Y25.750 E5.26115
G1 X35.962 Y26.205 E5.30086
G1 X35.642 Y26.880 E5.36255
G1 X33.257 Y30.786 E5.74083
G1 X32.795 Y31.387 E5.80348
G1 X31.994 Y32.173 E5.89622
G1 X31.633 Y32.490 E5.93592
G1 X31.019 Y32.914 E5.99762
G1 X27.000 Y35.105 E6.37590
G1 X26.300 Y35.394 E6.43853
G1 X25.213 Y35.674 E6.53128
G1 X24.742 Y35.768 E6.57099
G1 X23.998 Y35.829 E6.63269
G1 X19.422 Y35.717 E7.01097
G1 X18.638 Y35.609 E7.07640
G1 X17.435 Y35.267 E7.17976
G1 X17.135 Y35.162 E7.20604
G1 X16.460 Y34.842 E7.26774
G1 X12.554 Y32.457 E7.64602
G1 X11.953 Y31.996 E7.70865
G1 X11.167 Y31.194 E7.80140
G1 X10.850 Y30.833 E7.84111
G1 X10.426 Y30.219 E7.90281
G1 X8.235 Y26.200 E8.28109
G1 X7.946 Y25.500 E8.34371
G1 X7.666 Y24.413 E8.43647
G1 X7.572 Y23.942 E8.47618
G1 X7.511 Y23.198 E8.53788
G1 X7.623 Y18.622 E8.91616
G1 X7.731 Y17.838 E8.98159
G1 X8.024 Y16.790 E9.07152
G1 X8.178 Y16.335 E9.11123
G1 X8.498 Y15.660 E9.17293
G1 X10.883 Y11.754 E9.55121
G1 X11.361 Y11.136 E9.61578
G1 X11.732 Y11.491 F3600.000
G1 X12.642 Y10.612 E9.72030 F600.000
G1 X12.842 Y10.440 E9.74211
G1 X13.367 Y10.077 E9.79486
G1 X17.386 Y7.886 E10.17314
G1 X17.984 Y7.639 E10.22668
G1 X19.234 Y7.326 E10.33315
G1 X19.493 Y7.277 E10.35496
G1 X20.129 Y7.225 E10.40770
G1 X24.705 Y7.337 E10.78598
G1 X25.375 Y7.429 E10.84192 F600.000
G1 X26.406 Y7.718 E10.93039
G1 X26.835 Y7.863 E10.96780
G1 X27.412 Y8.136 E11.02054
G1 X31.318 Y10.521 E11.39882
G1 X31.853 Y10.936 E11.45476
G1 X32.601 Y11.702 E11.54323
G1 X32.900 Y12.042 E11.58064
G1 X33.263 Y12.567 E11.63338
G1 X35.454 Y16.586 E12.01166
G1 X35.701 Y17.184 E12.06521
G1 X35.975 Y18.249 E12.15608
G1 X36.063 Y18.693 E12.19349
G1 X36.115 Y19.329 E12.24624
G1 X36.003 Y23.905 E12.62452
G1 X35.911 Y24.575 E12.68045
G1 X35.622 Y25.606 E12.76892
G1 X35.477 Y26.035 E12.80634
G1 X35.204 Y26.612 E12.85908
G1 X32.819 Y30.518 E13.23736
G1 X32.424 Y31.032 E13.29091
G1 X31.638 Y31.802 E13.38178
G1 X31.298 Y32.100 E13.41919
G1 X30.773 Y32.463 E13.47193
G1 X26.754 Y34.654 E13.85021
G1 X26.156 Y34.901 E13.90375
G1 X24.930 Y35.210 E14.00818
G1 X24.647 Y35.263 E14.03204
G1 X24.011 Y35.315 E14.08478
G1 X19.435 Y35.203 E14.46306
G1 X18.765 Y35.111 E14.51899
G1 X17.601 Y34.780 E14.61894
G1 X17.305 Y34.677 E14.64488
G1 X16.728 Y34.404 E14.69762
G1 X12.822 Y32.019 E15.07590
G1 X12.308 Y31.624 E15.12944
G1 X11.538 Y30.838 E15.22032
G1 X11.240 Y30.498 E15.25773
G1 X10.877 Y29.973 E15.31047
G1 X8.686 Y25.954 E15.68875
G1 X8.439 Y25.356 E15.74229
G1 X8.165 Y24.291 E15.83317
G1 X8.077 Y23.847 E15.87058
G1 X8.025 Y23.211 E15.92333
G1 X8.137 Y18.635 E16.30161
G1 X8.229 Y17.965 E16.35754
G1 X8.518 Y16.934 E16.44601
G1 X8.663 Y16.505 E16.48342
G1 X8.936 Y15.928 E16.53617
G1 X11.321 Y12.022 E16.91445
G1 X11.694 Y11.537 E16.96497
G1 X12.088 Y11.863 F3600.000
G1 X12.943 Y11.032 E17.06353 F600.000
G1 X13.177 Y10.830 E17.08909
G1 X13.613 Y10.529 E17.13288
G1 X17.632 Y8.338 E17.51116
G1 X18.129 Y8.133 E17.55561
G1 X19.285 Y7.840 E17.65416
G1 X19.589 Y7.782 E17.67973
G1 X20.117 Y7.739 E17.72352
G1 X24.692 Y7.851 E18.10180
G1 X25.249 Y7.928 E18.14824 F600.000
G1 X26.263 Y8.212 E18.23525
G1 X26.665 Y8.348 E18.27036
G1 X27.144 Y8.575 E18.31415
G1 X31.050 Y10.960 E18.69243
G1 X31.494 Y11.305 E18.73886
G1 X32.230 Y12.057 E18.82588
G1 X32.510 Y12.377 E18.86099
G1 X32.811 Y12.813 E18.90478
G1 X35.002 Y16.832 E19.28306
G1 X35.208 Y17.329 E19.32751
G1 X35.475 Y18.372 E19.41651
G1 X35.558 Y18.789 E19.45163
G1 X35.601 Y19.317 E19.49542
G1 X35.489 Y23.892 E19.87369
G1 X35.412 Y24.449 E19.92013
G1 X35.128 Y25.463 E20.00714
G1 X34.992 Y25.865 E20.04225
G1 X34.765 Y26.344 E20.08604
G1 X32.380 Y30.250 E20.46432
G1 X32.052 Y30.677 E20.50878
G1 X31.283 Y31.430 E20.59778
G1 X30.963 Y31.710 E20.63289
G1 X30.527 Y32.011 E20.67668
G1 X26.508 Y34.202 E21.05496
G1 X26.011 Y34.407 E21.09941
G1 X24.855 Y34.700 E21.19795
G1 X24.551 Y34.758 E21.22353
G1 X24.023 Y34.801 E21.26732
G1 X19.448 Y34.689 E21.64560
G1 X18.891 Y34.612 E21.69203
G1 X17.767 Y34.294 E21.78857
G1 X17.475 Y34.192 E21.81416
G1 X16.996 Y33.965 E21.85795
G1 X13.090 Y31.580 E22.23623
G1 X12.663 Y31.252 E22.28067
G1 X11.910 Y30.483 E22.36968
G1 X11.630 Y30.163 E22.40480
G1 X11.329 Y29.727 E22.44859
G1 X9.138 Y25.708 E22.82686
G1 X8.933 Y25.211 E22.87131
G1 X8.665 Y24.168 E22.96032
G1 X8.582 Y23.751 E22.99543
G1 X8.539 Y23.223 E23.03922
G1 X8.651 Y18.648 E23.41750
G1 X8.728 Y18.091 E23.46394
G1 X9.012 Y17.077 E23.55095
G1 X9.148 Y16.675 E23.58606
G1 X9.375 Y16.196 E23.62985
G1 X11.760 Y12.290 E24.00813
G1 X12.051 Y11.911 E24.04762
G1 X12.974 Y12.696 F3600.000
G1 X13.716 Y11.989 E24.13228 F600.000
G1 X14.216 Y11.557 E24.18694
G1 X14.829 Y11.413 E24.23898
G1 X15.370 Y11.551 E24.28516
G1 X15.915 Y11.723 E24.33237
G1 X16.412 Y11.925 E24.37670
G1 X16.970 Y12.206 E24.42830
G1 X17.440 Y11.972 E24.47175
G1 X17.608 Y10.929 E24.55905
G1 X17.807 Y10.234 E24.61875
G1 X17.996 Y9.724 E24.66375
G1 X18.480 Y9.297 E24.71707
G1 X19.475 Y9.055 E24.80173
G1 X20.125 Y8.931 E24.85639
G1 X20.728 Y9.113 E24.90844
G1 X21.127 Y9.504 E24.95461 F600.000
G1 X21.513 Y9.925 E25.00182
G1 X21.843 Y10.348 E25.04615
G1 X22.185 Y10.870 E25.09775
G1 X22.710 Y10.902 E25.14121
G1 X23.376 Y10.083 E25.22850
G1 X23.896 Y9.582 E25.28820
G1 X24.315 Y9.234 E25.33320
G1 X24.948 Y9.106 E25.38653
G1 X25.930 Y9.394 E25.47119
G1 X26.567 Y9.616 E25.52691
G1 X27.007 Y10.102 E25.58107
G1 X27.205 Y10.891 E25.64831
G1 X27.302 Y11.420 E25.69276
G1 X27.353 Y11.942 E25.73610
G1 X27.358 Y12.308 E25.76639
G1 X27.801 Y12.614 E25.81085
G1 X28.795 Y12.235 E25.89873
G1 X29.496 Y12.061 E25.95843
G1 X30.032 Y11.969 E26.00343
G1 X30.644 Y12.174 E26.05676
G1 X31.351 Y12.916 E26.14142
G1 X31.783 Y13.416 E26.19608
G1 X31.927 Y14.029 E26.24812
G1 X31.789 Y14.570 E26.29430
G1 X31.617 Y15.115 E26.34151
G1 X31.415 Y15.612 E26.38584
G1 X31.134 Y16.170 E26.43744
G1 X31.368 Y16.640 E26.48089
G1 X32.411 Y16.808 E26.56818
G1 X33.106 Y17.007 E26.62789
G1 X33.616 Y17.196 E26.67288
G1 X34.043 Y17.680 E26.72621
G1 X34.293 Y18.713 E26.81405
G1 X34.409 Y19.325 E26.86553
G1 X34.227 Y19.928 E26.91757
G1 X33.836 Y20.327 E26.96375
G1 X33.415 Y20.713 E27.01096
G1 X32.992 Y21.043 E27.05529
G1 X32.470 Y21.385 E27.10689
G1 X32.438 Y21.910 E27.15034
G1 X33.257 Y22.576 E27.23764
G1 X33.758 Y23.096 E27.29734
G1 X34.106 Y23.515 E27.34234
G1 X34.234 Y24.148 E27.39566
G1 X33.946 Y25.130 E27.48032
G1 X33.728 Y25.755 E27.53498
G1 X33.269 Y26.186 E27.58703
G1 X32.731 Y26.337 E27.63320
G1 X32.174 Y26.460 E27.68041
G1 X31.642 Y26.534 E27.72474
G1 X31.019 Y26.570 E27.77635
G1 X30.729 Y27.008 E27.81980
G1 X31.105 Y27.995 E27.90709
G1 X31.279 Y28.696 E27.96679
G1 X31.371 Y29.232 E28.01179
G1 X31.166 Y29.844 E28.06512
G1 X30.424 Y30.551 E28.14978
G1 X29.924 Y30.983 E28.20443
G1 X29.311 Y31.127 E28.25648
G1 X28.770 Y30.989 E28.30265
G1 X28.225 Y30.817 E28.34987
G1 X27.728 Y30.615 E28.39419
G1 X27.170 Y30.334 E28.44580
G1 X26.700 Y30.568 E28.48925
G1 X26.532 Y31.611 E28.57654
G1 X26.333 Y32.306 E28.63624
G1 X26.144 Y32.816 E28.68124
G1 X25.660 Y33.243 E28.73457
G1 X24.665 Y33.485 E28.81923
G1 X24.002 Y33.611 E28.87495
G1 X23.379 Y33.410 E28.92912
G1 X22.627 Y32.615 E29.01955
G1 X22.297 Y32.192 E29.06388
G1 X21.955 Y31.670 E29.11548
G1 X21.430 Y31.638 E29.15893
G1 X20.764 Y32.457 E29.24622
G1 X20.244 Y32.958 E29.30593
G1 X19.825 Y33.306 E29.35092
G1 X19.192 Y33.434 E29.40425
G1 X18.210 Y33.146 E29.48891
G1 X17.585 Y32.928 E29.54357
G1 X17.154 Y32.469 E29.59561
G1 X17.003 Y31.931 E29.64179
G1 X16.880 Y31.374 E29.68900
G1 X16.806 Y30.842 E29.73333
G1 X16.770 Y30.219 E29.78493
G1 X16.332 Y29.929 E29.82838
G1 X15.345 Y30.305 E29.91568
G1 X14.644 Y30.479 E29.97538
G1 X14.108 Y30.571 E30.02038
G1 X13.496 Y30.366 E30.07370
G1 X12.789 Y29.624 E30.15836
G1 X12.357 Y29.124 E30.21302
G1 X12.213 Y28.511 E30.26506
G1 X12.351 Y27.970 E30.31124
G1 X12.523 Y27.425 E30.35845
G1 X12.725 Y26.928 E30.40278
G1 X13.006 Y26.370 E30.45438
G1 X12.772 Y25.900 E30.49784
G1 X11.729 Y25.732 E30.58513
G1 X11.034 Y25.533 E30.64483
G1 X10.524 Y25.344 E30.68983
G1 X10.097 Y24.860 E30.74316
G1 X9.855 Y23.865 E30.82782
G1 X9.731 Y23.215 E30.88247
G1 X9.913 Y22.612 E30.93452
G1 X10.304 Y22.213 E30.98069
G1 X10.725 Y21.827 E31.02791
G1 X11.148 Y21.497 E31.07223
G1 X11.670 Y21.155 E31.12384
G1 X11.702 Y20.630 E31.16729
G1 X10.883 Y19.964 E31.25458
G1 X10.382 Y19.444 E31.31428
G1 X10.034 Y19.025 E31.35928
G1 X9.906 Y18.392 E31.41261
G1 X10.194 Y17.410 E31.49727
G1 X10.412 Y16.785 E31.55193
G1 X10.871 Y16.354 E31.60397
G1 X11.409 Y16.203 E31.65014
G1 X11.966 Y16.080 E31.69736
G1 X12.498 Y16.006 E31.74169
G1 X13.121 Y15.970 E31.79329
G1 X13.411 Y15.532 E31.83674
G1 X13.035 Y14.545 E31.92403
G1 X12.861 Y13.844 E31.98374
G1 X12.769 Y13.308 E32.02873
G1 X12.955 Y12.753 E32.07710
G1 X13.421 Y12.982 F3600.000
G1 X14.068 Y12.363 E32.15112 F600.000
G1 X14.456 Y12.028 E32.19346
G1 X14.824 Y11.942 E32.22469
G1 X15.536 Y12.137 E32.28569
G1 X16.194 Y12.391 E32.34400
G1 X16.556 Y12.570 E32.37740
G1 X16.905 Y12.782 E32.41110
G1 X17.399 Y13.164 E32.46278
G1 X17.993 Y12.840 E32.51868
G1 X17.954 Y12.206 E32.57122
G1 X17.980 Y11.856 E32.60021
G1 X18.094 Y11.112 E32.66244
G1 X18.239 Y10.574 E32.70850
G1 X18.433 Y10.024 E32.75670
G1 X18.724 Y9.768 E32.78870
G1 X19.594 Y9.556 E32.86272
G1 X20.097 Y9.460 E32.90506
G1 X20.459 Y9.569 E32.93629 F600.000
G1 X20.968 Y10.082 E32.99603
G1 X21.288 Y10.463 E33.03715
G1 X21.568 Y10.857 E33.07708
G1 X21.726 Y11.118 E33.10231
G1 X21.859 Y11.375 E33.12625
G1 X22.078 Y11.915 E33.17441
G1 X22.754 Y11.931 E33.23031
G1 X23.038 Y11.362 E33.28285
G1 X23.235 Y11.073 E33.31184
G1 X23.744 Y10.443 E33.37869
G1 X24.100 Y10.091 E33.42013
G1 X24.544 Y9.712 E33.46833
G1 X24.923 Y9.635 E33.50033
G1 X25.783 Y9.887 E33.57434
G1 X26.274 Y10.058 E33.61733
G1 X26.538 Y10.350 E33.64983
G1 X26.716 Y11.059 E33.71027
G1 X26.801 Y11.551 E33.75155
G1 X26.841 Y11.986 E33.78766
G1 X26.838 Y12.553 E33.83448
G1 X26.754 Y13.172 E33.88616
G1 X27.332 Y13.524 E33.94206
G1 X27.862 Y13.173 E33.99460
G1 X28.178 Y13.021 E34.02359
G1 X28.933 Y12.731 E34.09045
G1 X29.418 Y12.604 E34.13188
G1 X29.991 Y12.497 E34.18008
G1 X30.358 Y12.621 E34.21208
G1 X30.977 Y13.268 E34.28610
G1 X31.312 Y13.656 E34.32844
G1 X31.398 Y14.024 E34.35967
G1 X31.203 Y14.736 E34.42067
G1 X30.949 Y15.394 E34.47898
G1 X30.770 Y15.756 E34.51238
G1 X30.558 Y16.105 E34.54608
G1 X30.176 Y16.599 E34.59776
G1 X30.500 Y17.193 E34.65366
G1 X31.134 Y17.154 E34.70620
G1 X31.484 Y17.180 E34.73519
G1 X32.283 Y17.306 E34.80204
G1 X32.766 Y17.439 E34.84348
G1 X33.316 Y17.633 E34.89168
G1 X33.572 Y17.924 E34.92367
G1 X33.784 Y18.794 E34.99769
G1 X33.880 Y19.297 E35.04004
G1 X33.771 Y19.659 E35.07126
G1 X33.247 Y20.178 E35.13226
G1 X32.698 Y20.621 E35.19057
G1 X32.361 Y20.845 E35.22398
G1 X32.004 Y21.041 E35.25767
G1 X31.425 Y21.278 E35.30936
G1 X31.409 Y21.954 E35.36525
G1 X31.978 Y22.238 E35.41780
G1 X32.267 Y22.435 E35.44679
G1 X32.855 Y22.906 E35.50901
G1 X33.249 Y23.300 E35.55508
G1 X33.628 Y23.744 E35.60328
G1 X33.705 Y24.123 E35.63527
G1 X33.453 Y24.983 E35.70929
G1 X33.285 Y25.467 E35.75164
G1 X33.009 Y25.725 E35.78286
G1 X32.295 Y25.912 E35.84386
G1 X31.598 Y26.022 E35.90217
G1 X31.195 Y26.048 E35.93558
G1 X30.787 Y26.038 E35.96928
G1 X30.168 Y25.954 E36.02096
G1 X29.816 Y26.532 E36.07685
G1 X30.167 Y27.062 E36.12940
G1 X30.319 Y27.378 E36.15839
G1 X30.592 Y28.079 E36.22061
G1 X30.736 Y28.618 E36.26668
G1 X30.843 Y29.191 E36.31488
G1 X30.719 Y29.558 E36.34688
G1 X30.072 Y30.177 E36.42089
G1 X29.684 Y30.512 E36.46324
G1 X29.316 Y30.598 E36.49447
G1 X28.619 Y30.408 E36.55421
G1 X28.151 Y30.238 E36.59532
G1 X27.712 Y30.037 E36.63526
G1 X27.444 Y29.890 E36.66048
G1 X27.200 Y29.734 E36.68442
G1 X26.741 Y29.376 E36.73258
G1 X26.147 Y29.700 E36.78848
G1 X26.186 Y30.334 E36.84102
G1 X26.160 Y30.684 E36.87002
G1 X26.034 Y31.483 E36.93687
G1 X25.901 Y31.966 E36.97830
G1 X25.707 Y32.516 E37.02650
G1 X25.416 Y32.772 E37.05850
G1 X24.546 Y32.984 E37.13252
G1 X24.035 Y33.082 E37.17550
G1 X23.661 Y32.961 E37.20800
G1 X23.167 Y32.452 E37.26664
G1 X22.719 Y31.898 E37.32555
G1 X22.495 Y31.561 E37.35896
G1 X22.299 Y31.204 E37.39265
G1 X22.062 Y30.625 E37.44433
G1 X21.386 Y30.609 E37.50023
G1 X21.102 Y31.178 E37.55277
G1 X20.905 Y31.467 E37.58176
G1 X20.396 Y32.097 E37.64862
G1 X20.040 Y32.449 E37.69005
G1 X19.596 Y32.828 E37.73825
G1 X19.217 Y32.905 E37.77025
G1 X18.357 Y32.653 E37.84427
G1 X17.873 Y32.485 E37.88661
G1 X17.615 Y32.209 E37.91784
G1 X17.428 Y31.495 E37.97884
G1 X17.318 Y30.798 E38.03715
G1 X17.292 Y30.395 E38.07055
G1 X17.302 Y29.987 E38.10425
G1 X17.386 Y29.368 E38.15593
G1 X16.808 Y29.016 E38.21183
G1 X16.278 Y29.367 E38.26437
G1 X15.962 Y29.519 E38.29336
G1 X15.261 Y29.792 E38.35559
G1 X14.722 Y29.936 E38.40165
G1 X14.149 Y30.043 E38.44985
G1 X13.782 Y29.919 E38.48185
G1 X13.163 Y29.272 E38.55587
G1 X12.828 Y28.884 E38.59821
G1 X12.742 Y28.516 E38.62944
G1 X12.937 Y27.804 E38.69044
G1 X13.191 Y27.146 E38.74875
G1 X13.370 Y26.784 E38.78215
G1 X13.582 Y26.435 E38.81585
G1 X13.964 Y25.941 E38.86753
G1 X13.640 Y25.347 E38.92343
G1 X13.006 Y25.386 E38.97597
G1 X12.656 Y25.360 E39.00496
G1 X11.912 Y25.246 E39.06719
G1 X11.374 Y25.101 E39.11325
G1 X10.824 Y24.907 E39.16145
G1 X10.568 Y24.616 E39.19345
G1 X10.356 Y23.746 E39.26747
G1 X10.260 Y23.243 E39.30981
G1 X10.369 Y22.881 E39.34104
G1 X10.882 Y22.372 E39.40078
G1 X11.263 Y22.052 E39.44190
G1 X11.657 Y21.772 E39.48183
G1 X11.918 Y21.614 E39.50706
G1 X12.175 Y21.481 E39.53100
G1 X12.715 Y21.262 E39.57916
G1 X12.731 Y20.586 E39.63506
G1 X12.162 Y20.302 E39.68760
G1 X11.873 Y20.105 E39.71659
G1 X11.243 Y19.596 E39.78344
G1 X10.891 Y19.240 E39.82488
G1 X10.512 Y18.796 E39.87308
G1 X10.435 Y18.417 E39.90507
G1 X10.687 Y17.557 E39.97909
G1 X10.855 Y17.073 E40.02144
G1 X11.131 Y16.815 E40.05266
G1 X11.845 Y16.628 E40.11366
G1 X12.542 Y16.518 E40.17197
G1 X12.945 Y16.492 E40.20538
G1 X13.353 Y16.502 E40.23907
G1 X13.972 Y16.586 E40.29076
G1 X14.324 Y16.008 E40.34665
G1 X13.973 Y15.478 E40.39920
G1 X13.821 Y15.162 E40.42819
G1 X13.531 Y14.407 E40.49504
G1 X13.404 Y13.922 E40.53647
G1 X13.297 Y13.349 E40.58468
G1 X13.402 Y13.039 E40.61171
G1 X13.867 Y13.268 F3600.000
G1 X14.421 Y12.737 E40.67509 F600.000
